X:1
T:Title
%%score { ( 1 4 ) | ( 2 3 ) }
L:1/8
Q:1/4=100
M:4/4
K:D
V:1 treble nm="Grand Piano"
V:4 treble 
V:2 bass 
V:3 bass 
V:1
 [FA]2 [Fd]2 [Fd]3 [Ac] | [GB][Bd][Ac]B [DFA]2 [A,DF]2 | [DFA]2 [DAd]2 [EGc]3 [A,CE] | [A,CG]6 z2 | %4
w: Geo.~C.~Hugg * * *||||
 [A,DF]2 [DFA]2 [Fd]3 [Ac] | [ce][Bd][Ac][GB] [FA]2 [DF]2 | [CE]2 [CB]2 [CA]3[K:bass] [G,A,C] | %7
w: |||
 [F,A,D]6 z2 | D2 D2 FA [Fd]>[Ge] | [^Gd]4 [Gc]2 z2 | A,2 A,2 [CE]G [Gc]>B | [GB]4 [FA]2 z2 | %12
w: |||||
 [Fd]2 [Gd]2 [Fd]3 [Fc] | [GB][Bd][Ac][GB] [FA]2 [DF]2 | [CE]2 [CB]2 [CA]3 C | D6 z2 |] %16
w: ||||
V:2
 [D,D]2 [D,A,]2 [D,A,]3 [D,D] | z2[K:treble] [G,D]2[K:bass] z4 | D,2 F,2 A,3 A,, | A,,6 z2 | %4
 D,2 D,2 [D,A,]3 [D,D] | [G,D]2 [G,D]2 [D,D]2 [D,A,]2 | [A,,A,]2 [A,,E,]2 [A,,E,]3 A,, | D,6 z2 | %8
 z4 .[A,D]2 z2 | [E,B,]4 A,2 z2 | A,,2 A,,2 z E z z/ G/ | [D,D]2 [D,D]2 [D,D]2 z2 | %12
 [D,A,]2 [D,B,]2 [D,A,]3 [D,D] | [G,D]2 [G,D]2 [D,D]2 [D,A,]2 | %14
 [A,,A,]2 [A,,E,]2 [A,,E,]3 [A,,G,A,] | [D,F,A,]6 z2 |] %16
V:3
 x8 | [G,D]2[K:treble] z G[K:bass] D,2 D,2 | x8 | x8 | x8 | x8 | x8 | x8 | %8
 D,2 D,2 D,-[D,DF] [D,D]2 | x8 | z4 [A,,A,]2 A,,2 | x8 | x8 | x8 | x8 | x8 |] %16
V:4
 x8 | x8 | x8 | x8 | x8 | x8 | x7[K:bass] x | x8 | [FA]4 z4 | x8 | [EG]4 z2 C2 | x8 | x8 | x8 | %14
 x8 | x8 |] %16

